Adwaita++/actions/symbolic/object-rotate-left-symbolic.svg

<svg height="16" width="16" xmlns="http://www.w3.org/2000/svg">
  <g fill="#474747">
    <path d="m2 9v1c0 .265.093.53.281.719l3.72 3.719 3.718-3.72c.188-.187.281-.453.281-.718v-1h-1c-.265 0-.53.093-.719.281l-2.28 2.281-2.282-2.28a1.015 1.015 0 0 0 -.719-.282z"/>
    <path d="m8.5 3a3.515 3.515 0 0 0 -3.5 3.5v5.5h2v-5.5c0-.84.66-1.5 1.5-1.5h4.5v-2z"/>
  </g>
</svg>

<svg xmlns="http://www.w3.org/2000/svg" width="16" height="16">
    <g color="#000" font-weight="400" fill="#474747">
        <path d="M2 9v1c0 .265.093.53.281.719l3.72 3.719 3.718-3.72c.188-.187.281-.453.281-.718V9H9c-.265 0-.53.093-.719.281l-2.28 2.281-2.282-2.28A1.015 1.015 0 0 0 3 9z" style="line-height:normal;-inkscape-font-specification:'Bitstream Vera Sans';text-indent:0;text-align:start;text-decoration-line:none;text-transform:none;marker:none" font-family="Bitstream Vera Sans" overflow="visible"/>
        <path d="M8.5 3A3.515 3.515 0 0 0 5 6.5V12h2V6.5C7 5.66 7.66 5 8.5 5H13V3z" style="line-height:normal;font-variant-ligatures:normal;font-variant-position:normal;font-variant-caps:normal;font-variant-numeric:normal;font-variant-alternates:normal;font-feature-settings:normal;text-indent:0;text-align:start;text-decoration-line:none;text-decoration-style:solid;text-decoration-color:#000;text-transform:none;text-orientation:mixed;shape-padding:0;isolation:auto;mix-blend-mode:normal;marker:none" font-family="sans-serif" white-space="normal" overflow="visible"/>
    </g>
</svg>
